packages/icons/24x24/email.svg

<?xml version="1.0" encoding="UTF-8"?>
<svg class="customer-ui__icon" fill="#000000" width="24px" height="24px" viewBox="0 0 24 24" version="1.1"
    xmlns="http://www.w3.org/2000/svg" xmlns:xlink="http://www.w3.org/1999/xlink">
    <title>Email</title>
    <defs>
        <path
            d="M12,5 C12.5522847,5 13,5.44771525 13,6 C13,6.51283584 12.6139598,6.93550716 12.1166211,6.99327227 L12,7 L5,7 C4.48716416,7 4.06449284,7.38604019 4.00672773,7.88337887 L4,8 L4,16 C4,16.5128358 4.38604019,16.9355072 4.88337887,16.9932723 L5,17 L19,17 C19.5128358,17 19.9355072,16.6139598 19.99329,16.1219523 L20.0000222,16.0066585 L19.9472757,8.08515807 L12.6178728,13.8447474 C12.311064,14.0858437 11.8958849,14.1242877 11.5535513,13.9533233 L11.4423866,13.8885701 L6.06366048,10.2754549 C5.60520848,9.96749351 5.48321172,9.34619271 5.7911731,8.88774071 C6.07713723,8.46203528 6.63327668,8.32643667 7.07832851,8.55580852 L7.17888727,8.61525332 L11.954,11.823 L18.7115301,6.51260194 C19.536604,5.86424266 20.7125885,5.96791737 21.4132685,6.72453488 L21.5198319,6.84941247 C21.7596643,7.15461274 21.9047563,7.52200356 21.9392607,7.90625954 L21.9472314,8.07184109 L22,16 C22,17.5976809 20.75108,18.9036609 19.1762728,18.9949073 L19,19 L5,19 C3.40231912,19 2.09633912,17.75108 2.00509269,16.1762728 L2,16 L2,8 C2,6.40231912 3.24891996,5.09633912 4.82372721,5.00509269 L5,5 L12,5 Z"
            id="path-1"></path>
    </defs>
    <g id="Icons-/-24x24-/-Email" stroke="none" stroke-width="1" fill-rule="evenodd">
        <rect id="base" fill-opacity="0" fill="#FFFFFF" x="0" y="0" width="24" height="24"></rect>
        <mask id="mask-2" fill="white">
            <use xlink:href="#path-1"></use>
        </mask>
        <use fill="inherit" fill-rule="nonzero" xlink:href="#path-1"></use>
        <rect fill="inherit" mask="url(#mask-2)" x="0" y="0" width="24" height="24"></rect>
    </g>
</svg>

<svg class="prefix__customer-ui__icon" width="24" height="24" xmlns="http://www.w3.org/2000/svg" xmlns:xlink="http://www.w3.org/1999/xlink"><defs><path d="M12 5a1 1 0 01.117 1.993L12 7H5a1 1 0 00-.993.883L4 8v8a1 1 0 00.883.993L5 17h14a1 1 0 00.993-.878l.007-.115-.053-7.922-7.33 5.76a1 1 0 01-1.063.108l-.112-.064-5.378-3.614a1 1 0 011.014-1.72l.1.06 4.776 3.208 6.758-5.31a2 2 0 012.701.212l.107.124a2 2 0 01.42 1.057l.007.166L22 16a3 3 0 01-2.824 2.995L19 19H5a3 3 0 01-2.995-2.824L2 16V8a3 3 0 012.824-2.995L5 5h7z" id="prefix__a"/></defs><g fill-rule="evenodd"><path fill="none" d="M0 0h24v24H0z"/><mask id="prefix__b" fill="#fff"><use xlink:href="#prefix__a"/></mask><use fill="inherit" fill-rule="nonzero" xlink:href="#prefix__a"/><path fill="inherit" mask="url(#prefix__b)" d="M0 0h24v24H0z"/></g></svg>
